X: 16371
T: Gus Jordan's
R: reel
M: 4/4
K: Adorian
A2eA AGEF|G2dG AGEA|A2ea agef|gedB cAAG|
A2eA AGEF|G2dG AGEA|A2ba agef|gedB cA A2|
e2ag eaag|f2eA defd|eaag eaag|fdef g4|
(3efg ab c'bag|fdef g3e|dggf g2dg|g2ag gedB||

